pieces/companion/nb.svg

<svg viewBox="0 0 64 64" xmlns="http://www.w3.org/2000/svg"><g transform="translate(0 -16)"><path d="m11.698 60.852c.92476.92951 3.2346.9524 4.38.12548.90758-1.1176 2.2293-1.6941 2.5839-3.1742.61739-1.9518-1.9179-3.0837-3.222-1.7012-1.4901 1.4104-4.7594 3.8523-3.7418 4.7499z" fill="#fff" stroke="#201917" stroke-width="1.422"/><path d="m22.245 29.071c.20597-1.9788.3349-3.9646.43123-5.9517 1.9883 3.0016 4.5019 6.2066 8.3762 6.5823 7.7791 1.1731 15.125 5.6456 19.173 12.475 5.8028 9.5313 6.2665 21.372 3.4977 31.968-10.304-.0066-20.607.01636-30.909-.002-1.2234-.03411-3.4531.06056-3.1456-1.8212.74965-3.9733 3.8055-7.1684 7.2969-9.0242 4.4241-2.6506 5.6409-8.114 5.7011-12.912-2.4746 2.2916-6.6059 4.9362-10.314 4.8586-2.1527 3.4628-2.7729 5.6352-7.3428 6.8119-.61116-.67946.0714-1.5008.93898-3.9147-1.0144 1.0616-2.4963 2.4652-4.6153 3.334-2.1847-1.921-3.3993-4.6283-2.2626-7.8439.93823-1.4112.56631-1.7158 1.8382-2.9077 1.6509-1.547 4.0042-5.2911 4.4821-8.1005.46283-3.1574 2.1843-5.8864 4.0421-8.4033-1.2045-2.7992-1.7214-5.8187-1.6461-8.8587 1.4899 1.2297 2.9285 2.5224 4.4579 3.7095z"/><g fill="#fff"><path d="m24.355 28.426c.787 1.0721 2.0117 2.1759 3.1393 2.9155.0499.98886.58942 2.762-1.0227 2.6898-2.9763.29354-2.5169-3.8142-2.1166-5.6053z"/><path d="m32.042 32.324c6.3341-.02973 13.117 6.5315 15.01 9.1944 6.5723 7.9067 6.7916 19.162 5.3087 29.095.32949 1.813-1.6467 1.5827-2.7979 1.9718.11418-8.1758.85073-16.72-2.6863-24.377-3.051-6.365-8.6691-11.317-15.142-14.026.077-.4646.23085-1.3938.3078-1.8584z"/><path d="m10.878 55.372c.6317-1.0029 1.9787-.98986 2.9778-1.3707-.64846 1.3215-.9535 3.1954-2.5168 3.7202-.45216-.64066-1.0763-1.6031-.46106-2.3495z"/><path d="m20.434 42.99c1.8061-1.3623 3.5718-.5152 5.5015.06248-2.135 1.1951-4.6929 3.3449-6.4036 2.315-.69292-.41714-.11045-1.6138.90214-2.3775z"/></g></g><path d="m20.588524 57.669031c-.860485-.373535-.906548-.459583-.752891-1.40646.261812-1.613356 1.729975-4.2985 3.14415-5.750381.718506-.73766 2.175191-1.903238 3.23708-2.59017 1.061889-.686934 2.375183-1.700914 2.918432-2.253291 1.94099-1.973605 3.584836-6.657317 3.614566-10.298763l.0095-1.158849-1.381781 1.092235c-2.6789 2.117548-6.404678 3.801733-8.410249 3.801733-.622127 0-.890892.256192-1.635844 1.559322-1.206897 2.1112-2.795761 3.779642-4.348834 4.566644-2.219427 1.124667-2.534792.849047-1.579224-1.380204.756042-1.763774.680454-1.997632-.338983-1.048748-1.174416 1.093136-3.22288 2.54234-3.578848 2.531889-.371301-.0109-1.9296898-2.085093-2.3016776-3.063496-.505137-1.32861-.3440746-3.713651.3516816-5.207764.3494421-.750416.812158-1.543636 1.028257-1.762712 2.483923-2.518145 4.205137-5.612834 5.075638-9.125841.585047-2.361024 1.411672-4.189924 2.921635-6.464094l.931772-1.403349-.657317-2.27879c-.656186-2.274871-1.206142-6.2109928-.867802-6.2109928.0983 0 1.048582.7322038 2.111742 1.6271188 1.063159.894915 2.022626 1.627118 2.132149 1.627118s.287595-1.247772.395716-2.772827c.189089-2.667116.213038-2.7472414.628169-2.1016951.806057 1.2534547 3.417491 3.8432811 4.537226 4.4996861.613317.359535 2.321792.908199 3.796611 1.219255 5.033977 1.061719 8.589101 2.622932 12.243688 5.376746 3.435645 2.588837 5.769933 5.545315 7.789779 9.866099 2.635943 5.638711 3.471007 9.538759 3.494286 16.319516.0163 4.745866-.198652 6.883401-1.083973 10.779661l-.415935 1.830509-16.046058-.0106c-13.489482-.008926-16.192136-.074013-16.962661-.408495zm31.153849-1.583268c.621483-.283309.704065-.53472.991235-3.017749.472084-4.081907.444128-11.806889-.0531-14.673169-1.070066-6.168373-3.131438-10.465529-7.051441-14.699495-3.886335-4.197601-9.315778-7.363329-12.637337-7.368414-.651729-.001-1.043953.144468-1.152543.427447-.426633 1.111788-.167444 1.440413 2.043132 2.590481 6.530284 3.397427 11.6101 9.028172 13.809875 15.307621 1.327984 3.790842 1.646872 6.344231 1.80035 14.415678l.145616 7.65799.713125-.165668c.39222-.09112 1.018211-.304743 1.391092-.474722zm-39.495557-14.878983c.368654-.335594.92368-1.203238 1.233391-1.928098l.56311-1.317928-1.014879.179477c-1.191274.210671-2.3327.963959-2.462623 1.625214-.108579.552624.466829 2.051504.787556 2.051504.12274 0 .52479-.274576.893445-.610169zm11.292167-12.596773c2.704142-1.444056 2.77749-1.587278 1.07223-2.093686-.793022-.235502-1.755302-.427729-2.1384-.427172-.757349.0011-2.384219.888311-2.92041 1.592636-.548019.719863-.422856 1.650518.257766 1.91664.841984.329214 1.674816.108451 3.728814-.988418zm3.742373-10.711702c.178983-.178983.325424-.807521.325424-1.396751 0-.960243-.170171-1.230762-1.641183-2.608974-.902651-.845707-1.683107-1.468016-1.734348-1.382911-.119658.198739-.233512 2.33089-.186312 3.489098.06712 1.647024 2.223373 2.912584 3.236419 1.899538z" fill="#333" stroke="#000" stroke-width=".987802"/></svg>

<svg width="64" height="64" viewBox="0 0 64 64" fill="none" xmlns="http://www.w3.org/2000/svg">
<path d="M11.698 44.852C12.6228 45.7815 14.9326 45.8044 16.078 44.9775C16.9856 43.8599 18.3073 43.2834 18.6619 41.8033C19.2793 39.8515 16.744 38.7196 15.4399 40.1021C13.9498 41.5125 10.6805 43.9544 11.6981 44.852L11.698 44.852Z" fill="white" stroke="#201917" stroke-width="1.422"/>
<path d="M22.245 13.071C22.451 11.0922 22.5799 9.10639 22.6762 7.11929C24.6645 10.1209 27.1781 13.3259 31.0524 13.7016C38.8315 14.8747 46.1774 19.3472 50.2254 26.1766C56.0282 35.7079 56.4919 47.5486 53.7231 58.1446C43.4191 58.138 33.1161 58.161 22.8141 58.1426C21.5907 58.1085 19.361 58.2032 19.6685 56.3214C20.4182 52.3481 23.474 49.153 26.9654 47.2972C31.3895 44.6466 32.6063 39.1832 32.6665 34.3852C30.1919 36.6768 26.0606 39.3214 22.3525 39.2438C20.1998 42.7066 19.5796 44.879 15.0097 46.0557C14.3986 45.3762 15.0811 44.5549 15.9487 42.141C14.9343 43.2026 13.4524 44.6062 11.3334 45.475C9.14871 43.554 7.93411 40.8467 9.07081 37.6311C10.009 36.2199 9.63712 35.9153 10.909 34.7234C12.5599 33.1764 14.9132 29.4323 15.3911 26.6229C15.8539 23.4655 17.5754 20.7365 19.4332 18.2196C18.2287 15.4204 17.7118 12.4009 17.7871 9.36089C19.277 10.5906 20.7156 11.8833 22.245 13.0704L22.245 13.071Z" fill="black"/>
<path d="M24.355 12.426C25.142 13.4981 26.3667 14.6019 27.4943 15.3415C27.5442 16.3304 28.0837 18.1035 26.4716 18.0313C23.4953 18.3248 23.9547 14.2171 24.355 12.426V12.426Z" fill="white"/>
<path d="M32.042 16.324C38.3761 16.2943 45.159 22.8555 47.052 25.5184C53.6243 33.4251 53.8436 44.6804 52.3607 54.6134C52.6902 56.4264 50.714 56.1961 49.5628 56.5852C49.677 48.4094 50.4135 39.8652 46.8765 32.2082C43.8255 25.8432 38.2074 20.8912 31.7345 18.1822C31.8115 17.7176 31.9654 16.7884 32.0423 16.3238L32.042 16.324Z" fill="white"/>
<path d="M10.878 39.372C11.5097 38.3691 12.8567 38.3821 13.8558 38.0013C13.2073 39.3228 12.9023 41.1967 11.339 41.7215C10.8868 41.0808 10.2627 40.1184 10.8779 39.372H10.878Z" fill="white"/>
<path d="M20.434 26.99C22.2401 25.6277 24.0058 26.4748 25.9355 27.0525C23.8005 28.2476 21.2426 30.3974 19.5319 29.3675C18.839 28.9503 19.4215 27.7537 20.434 26.99L20.434 26.99Z" fill="white"/>
<path d="M20.5885 57.669C19.728 57.2955 19.682 57.2095 19.8356 56.2626C20.0974 54.6492 21.5656 51.9641 22.9798 50.5122C23.6983 49.7745 25.155 48.609 26.2169 47.922C27.2788 47.2351 28.592 46.2211 29.1353 45.6687C31.0763 43.6951 32.7201 39.0114 32.7499 35.37L32.7594 34.2111L31.3776 35.3034C28.6987 37.4209 24.9729 39.1051 22.9673 39.1051C22.3452 39.1051 22.0764 39.3613 21.3315 40.6644C20.1246 42.7756 18.5357 44.4441 16.9827 45.2311C14.7632 46.3557 14.4479 46.0801 15.4034 43.8508C16.1595 42.0871 16.0839 41.8532 15.0644 42.8021C13.89 43.8952 11.8416 45.3444 11.4856 45.334C11.1143 45.3231 9.55591 43.2489 9.18392 42.2705C8.67879 40.9419 8.83985 38.5568 9.5356 37.0627C9.88505 36.3123 10.3478 35.5191 10.5639 35.3C13.0478 32.7819 14.769 29.6872 15.6395 26.1742C16.2245 23.8132 17.0512 21.9843 18.5611 19.7101L19.4929 18.3067L18.8356 16.0279C18.1794 13.7531 17.6294 9.81695 17.9678 9.81695C18.0661 9.81695 19.0164 10.5492 20.0795 11.4441C21.1427 12.339 22.1022 13.0712 22.2117 13.0712C22.3212 13.0712 22.4993 11.8234 22.6074 10.2984C22.7965 7.63125 22.8204 7.55112 23.2356 8.19667C24.0416 9.45012 26.6531 12.0399 27.7728 12.6964C28.3861 13.0559 30.0946 13.6046 31.5694 13.9156C36.6034 14.9773 40.1585 16.5385 43.8131 19.2924C47.2487 21.8812 49.583 24.8377 51.6029 29.1585C54.2388 34.7972 55.0739 38.6972 55.0972 45.478C55.1135 50.2238 54.8985 52.3614 54.0132 56.2576L53.5972 58.0881L37.5512 58.0775C24.0617 58.0686 21.3591 58.0035 20.5885 57.669V57.669ZM51.7424 56.0858C52.3639 55.8025 52.4464 55.551 52.7336 53.068C53.2057 48.9861 53.1777 41.2611 52.6805 38.3948C51.6104 32.2265 49.5491 27.9293 45.6291 23.6954C41.7427 19.4978 36.3133 16.332 32.9917 16.3269C32.34 16.3259 31.9478 16.4714 31.8392 16.7544C31.4126 17.8662 31.6717 18.1948 33.8823 19.3449C40.4126 22.7423 45.4924 28.373 47.6922 34.6525C49.0202 38.4433 49.3391 40.9967 49.4925 49.0682L49.6382 56.7262L50.3513 56.5605C50.7435 56.4694 51.3695 56.2557 51.7424 56.0858H51.7424ZM12.2468 41.2068C12.6155 40.8712 13.1705 40.0035 13.4802 39.2787L14.0433 37.9608L13.0284 38.1402C11.8372 38.3509 10.6957 39.1042 10.5658 39.7654C10.4572 40.3181 11.0326 41.817 11.3534 41.817C11.4761 41.817 11.8782 41.5424 12.2468 41.2068V41.2068ZM23.539 28.61C26.2431 27.166 26.3165 27.0227 24.6112 26.5163C23.8182 26.2808 22.8559 26.0886 22.4728 26.0892C21.7155 26.0903 20.0886 26.9775 19.5524 27.6818C19.0044 28.4017 19.1295 29.3323 19.8102 29.5984C20.6522 29.9276 21.485 29.7069 23.539 28.61V28.61ZM27.2814 17.8983C27.4603 17.7193 27.6068 17.0908 27.6068 16.5016C27.6068 15.5413 27.4366 15.2708 25.9656 13.8926C25.0629 13.0469 24.2825 12.4246 24.2313 12.5097C24.1116 12.7084 23.9977 14.8406 24.0449 15.9988C24.1121 17.6458 26.2683 18.9114 27.2814 17.8983Z" fill="#333333" stroke="black" stroke-width="0.987802"/>
</svg>
